assets/images/icon-privy.svg

<svg xmlns="http://www.w3.org/2000/svg" width="30" height="22" fill="none" viewBox="0 0 30 22"><ellipse cx="10.503" cy="10.895" fill="#E42E2C" rx="10.248" ry="10.248"/><ellipse cx="10.503" cy="10.895" fill="url(#paint0_linear_2034_3)" fill-opacity=".2" rx="10.248" ry="10.248" style="mix-blend-mode:multiply"/><path fill="#E42E2C" d="M15.4277 19.8699C16.6556 19.197 17.7371 18.2822 18.6063 17.1811L29.6935 3.14168C28.5198 2.21466 27.1789 1.52279 25.7476 1.10559C24.3163 0.688384 22.8225 0.554009 21.3516 0.710141C19.8806 0.866273 18.4322 1.24024 17.1746 2.01555C16.6178 2.35887 16.3821 2.66136 15.9848 3.17122L15.9607 3.20214L3.77747 18.6294C4.81862 19.5439 6.037 20.2341 7.35844 20.658C8.67988 21.082 10.0767 21.2307 11.464 21.0952C12.8512 20.9597 14.1998 20.5429 15.4277 19.8699Z"/><defs><linearGradient id="paint0_linear_2034_3" x1="10.503" x2="6.335" y1="10.895" y2="7.411" gradientUnits="userSpaceOnUse"><stop offset=".158"/><stop offset=".366" stop-opacity=".75"/><stop offset=".573" stop-opacity=".5"/><stop offset=".802" stop-opacity=".25"/><stop offset="1" stop-opacity="0"/></linearGradient></defs></svg>

<svg xmlns="http://www.w3.org/2000/svg" width="30" height="22" fill="none" viewBox="0 0 30 22"><circle cx="10.503" cy="10.895" r="10.248" fill="#E42E2C"/><circle cx="10.503" cy="10.895" r="10.248" fill="url(#a)" fill-opacity=".2" style="mix-blend-mode:multiply"/><path fill="#E42E2C" d="M15.428 19.87a10.45 10.45 0 0 0 3.178-2.689l11.087-14.04a11.6 11.6 0 0 0-3.945-2.035A11.4 11.4 0 0 0 21.352.71c-1.471.156-2.92.53-4.177 1.306-.557.343-.793.645-1.19 1.155l-.024.031L3.777 18.63a10.1 10.1 0 0 0 3.581 2.029c1.322.424 2.719.573 4.106.437a10.3 10.3 0 0 0 3.964-1.225"/><defs><linearGradient id="a" x1="10.503" x2="6.335" y1="10.895" y2="7.411" gradientUnits="userSpaceOnUse"><stop offset=".158"/><stop offset=".366" stop-opacity=".75"/><stop offset=".573" stop-opacity=".5"/><stop offset=".802" stop-opacity=".25"/><stop offset="1" stop-opacity="0"/></linearGradient></defs></svg>
